svg/package-24.svg

<svg xmlns="http://www.w3.org/2000/svg" width="24" height="24" fill="none" viewBox="0 0 24 24"><path stroke="currentColor" stroke-linecap="round" stroke-linejoin="round" d="M8.5 3.5v-2M16.5 3.5v-2M12.5 3.5v-2M23.5 16.5h-2M23.5 8.5h-2M23.5 12.5h-2M3.5 16.5h-2M3.5 8.5h-2M3.5 12.5h-2M8.5 23.5v-2M16.5 23.5v-2M12.5 23.5v-2M19.5 3.5h-14a2 2 0 0 0-2 2v14a2 2 0 0 0 2 2h14a2 2 0 0 0 2-2v-14a2 2 0 0 0-2-2Z"/><path stroke="currentColor" stroke-linecap="round" stroke-linejoin="round" d="M15.5 9.5h-6v6h6v-6Z"/></svg>

<svg xmlns="http://www.w3.org/2000/svg" width="24" height="24" fill="none" viewBox="0 0 24 24"><path stroke="currentColor" stroke-linecap="round" stroke-linejoin="round" d="M8.5 3.5v-2m8 2v-2m-4 2v-2m11 15h-2m2-8h-2m2 4h-2m-18 4h-2m2-8h-2m2 4h-2m7 11v-2m8 2v-2m-4 2v-2m7-18h-14a2 2 0 0 0-2 2v14a2 2 0 0 0 2 2h14a2 2 0 0 0 2-2v-14a2 2 0 0 0-2-2Z"/><path stroke="currentColor" stroke-linecap="round" stroke-linejoin="round" d="M15.5 9.5h-6v6h6v-6Z"/></svg>
